source/img/fb-dark.svg

<svg width="3" height="6" viewBox="0 0 3 6" fill="none" xmlns="http://www.w3.org/2000/svg">
<path d="M0.810234 1.15296C0.810234 1.29942 0.810234 1.95312 0.810234 1.95312H0.223999V2.93157H0.810234V5.83916H2.01449V2.93165H2.82259C2.82259 2.93165 2.89828 2.46249 2.93496 1.94952C2.82978 1.94952 2.01904 1.94952 2.01904 1.94952C2.01904 1.94952 2.01904 1.38029 2.01904 1.28051C2.01904 1.18052 2.15034 1.04602 2.28011 1.04602C2.40964 1.04602 2.68303 1.04602 2.93623 1.04602C2.93623 0.912805 2.93623 0.452512 2.93623 0.0274048C2.59821 0.0274048 2.21365 0.0274048 2.04413 0.0274048C0.780467 0.0273372 0.810234 1.00676 0.810234 1.15296Z" fill="#8B7EAC" fill-opacity="0.65"/>
</svg>

<svg width="3" height="6" fill="none" xmlns="http://www.w3.org/2000/svg"><path d="M.81 1.153v.8H.224v.979H.81v2.907h1.204V2.932h.809s.075-.47.112-.982h-.916v-.67c0-.1.131-.234.261-.234h.656V.027h-.892C.78.027.81 1.007.81 1.153z" fill="#8B7EAC" fill-opacity=".65"/></svg>
